public/network.svg

<svg width="46" height="69" viewBox="0 0 46 69" fill="none" xmlns="http://www.w3.org/2000/svg">
<path d="M36.0523 64.6422C36.5482 64.6475 37.0368 64.5226 37.4693 64.2798C38.5472 63.6695 39.1451 62.3825 39.1451 60.6577V26.1428C39.0738 24.3828 38.5908 22.6642 37.7349 21.1248C36.8789 19.5854 35.6738 18.2683 34.2165 17.2792L12.2626 4.08201C10.8663 3.24283 9.52063 3.10684 8.47588 3.69808C7.39796 4.30922 6.80176 5.59535 6.80176 7.32015V41.8326C6.87303 43.5927 7.35615 45.3116 8.21226 46.8512C9.06837 48.3907 10.2736 49.7079 11.7312 50.6971L33.6808 63.8926C34.3892 64.3519 35.2087 64.6109 36.0523 64.6422ZM9.89539 4.3739C10.5493 4.40537 11.1827 4.61185 11.7295 4.97177L33.6808 18.1689C34.9831 19.0681 36.0602 20.2557 36.8283 21.6394C37.5964 23.023 38.0349 24.5653 38.1094 26.1461V60.6586C38.1094 61.9953 37.7015 62.9613 36.9594 63.3826C36.51 63.5697 36.0189 63.6339 35.5365 63.5688C35.0541 63.5037 34.5977 63.3115 34.214 63.0119L12.2626 49.8139C10.9605 48.9148 9.88349 47.7273 9.11537 46.3439C8.34724 44.9604 7.90874 43.4183 7.83407 41.8376V7.32263C7.83407 5.98592 8.24286 5.01986 8.98414 4.60028C9.26304 4.44584 9.57743 4.36694 9.8962 4.37141L9.89539 4.3739Z" fill="#0D034A"/>
<path opacity="0.43" d="M42.3958 61.3038C42.8918 61.3088 43.3805 61.1836 43.8129 60.9406C44.8908 60.3302 45.4886 59.0433 45.4886 57.3185V22.806C45.4174 21.0457 44.9343 19.3265 44.0781 17.7868C43.2218 16.2471 42.0163 14.9298 40.5584 13.9407L18.6054 0.746071C17.2083 -0.0931079 15.8634 -0.229099 14.8186 0.36214C13.7407 0.972452 13.1445 2.25941 13.1445 3.9842V38.4983C13.2157 40.2584 13.6987 41.9772 14.5546 43.5168C15.4106 45.0563 16.6157 46.3736 18.0731 47.3628L40.0269 60.5591C40.735 61.0163 41.5535 61.2736 42.3958 61.3038ZM16.2381 1.03547C16.892 1.06678 17.5255 1.27327 18.0723 1.63334L40.0269 14.8305C41.329 15.7296 42.4061 16.9171 43.1742 18.3006C43.9424 19.6841 44.3808 21.2262 44.4555 22.8069V57.3193C44.4555 58.656 44.0467 59.6237 43.3046 60.0433C42.855 60.2302 42.3638 60.2943 41.8813 60.229C41.3987 60.1637 40.9422 59.9715 40.5584 59.6718L18.6046 46.4747C17.3022 45.5754 16.2251 44.3877 15.4569 43.0039C14.6888 41.6201 14.2504 40.0776 14.176 38.4967V3.99001C14.176 2.6533 14.5839 1.68559 15.3261 1.266C15.6047 1.11072 15.9192 1.03124 16.2381 1.03547Z" fill="#0D034A"/>
<path d="M28.0021 21.741C29.3795 22.6877 30.5189 23.9407 31.3307 25.4018C32.1425 26.8628 32.6047 28.4921 32.6811 30.1618V64.6726C32.6811 67.7789 30.594 69.0253 28.0021 67.468L6.04824 54.2708C4.67094 53.3243 3.53178 52.0714 2.72009 50.6105C1.90841 49.1495 1.44632 47.5204 1.37012 45.8508V11.3409C1.37012 8.23458 3.4571 6.98825 6.04824 8.54554L28.0021 21.741Z" fill="white"/>
<path d="M30.1063 68.9985C30.6607 69.0033 31.2067 68.8629 31.6901 68.5914C32.8808 67.918 33.5366 66.5266 33.5366 64.6749V30.1633C33.4625 28.3454 32.9631 26.5703 32.0785 24.9805C31.1938 23.3908 29.9487 22.0306 28.4431 21.0095L6.48588 7.81478C4.98094 6.9101 3.515 6.77244 2.35831 7.4267C1.16763 8.10004 0.511719 9.49148 0.511719 11.344V45.8523C0.585689 47.67 1.08501 49.4449 1.96949 51.0346C2.85397 52.6243 4.09898 53.9842 5.60448 55.0053L27.5617 68.205C28.3225 68.6949 29.2019 68.9691 30.1063 68.9985ZM27.5617 22.4788C28.8159 23.3459 29.8531 24.4906 30.5927 25.824C31.3324 27.1574 31.7544 28.6435 31.8261 30.1666V64.6749C31.8261 65.8665 31.4695 66.748 30.8477 67.1029C30.4498 67.2574 30.0185 67.3049 29.5966 67.2408C29.1747 67.1766 28.777 67.003 28.4431 66.7372L6.48588 53.5401C5.23173 52.673 4.19454 51.5282 3.45505 50.1948C2.71555 48.8614 2.29373 47.3754 2.22233 45.8523V11.3431C2.22233 10.1515 2.57887 9.27008 3.20074 8.91434C3.59854 8.75976 4.02991 8.71219 4.45183 8.77635C4.87375 8.84052 5.27143 9.01418 5.60529 9.28003L27.5617 22.4755V22.4788Z" fill="#27292B"/>
<path d="M16.1501 27.5594C20.6342 30.897 24.2941 38.5699 24.2941 44.634C24.2941 50.6982 20.6342 52.9263 16.1501 49.5862C11.69 46.2692 8.00684 38.6005 8.00684 32.5115C8.00601 26.4474 11.6659 24.2226 16.1501 27.5594ZM18.5663 31.2138C18.9393 32.1506 19.2493 33.1113 19.4941 34.0895C19.8158 34.1007 20.1375 34.0641 20.4485 33.9809C19.8979 33.0084 19.2689 32.0829 18.5663 31.2138ZM21.1864 35.3906C20.7476 35.5306 20.2863 35.5869 19.8266 35.5564C20.1907 37.3886 20.3949 39.2489 20.4369 41.1164L23.3232 43.2641C23.1324 40.5249 22.4065 37.8497 21.1864 35.3898V35.3906ZM23.3232 44.5569L20.4369 42.4092C20.427 43.9789 20.222 45.5412 19.8266 47.0603C20.3183 47.7663 20.7723 48.4979 21.1864 49.252C22.412 48.538 23.203 46.9227 23.324 44.5569H23.3232ZM20.4477 49.5613C20.1447 49.0284 19.8266 48.5189 19.4933 48.033C19.4245 48.1989 19.3523 48.3597 19.276 48.5098C19.0956 48.8856 18.8556 49.2297 18.5654 49.5289C19.1793 49.7034 19.8281 49.7145 20.4477 49.5613ZM16.6277 48.5405C17.2819 48.7271 17.917 48.2975 18.4228 47.2967C18.4925 47.1582 18.5588 47.0114 18.6227 46.8563C18.0267 46.1066 17.3585 45.4173 16.6277 44.7982V48.538V48.5405ZM16.6277 43.5079C17.4799 44.2209 18.2577 45.0182 18.9494 45.8878C19.2932 44.5175 19.4731 43.1112 19.485 41.6985L16.6293 39.5732L16.6277 43.5079ZM16.6277 38.2838L19.4833 40.4091C19.4444 38.735 19.2652 37.0671 18.9477 35.4229C18.1181 35.2002 17.3329 34.837 16.626 34.3491L16.6277 38.2838ZM16.6277 33.0596C17.2369 33.4734 17.9113 33.7817 18.6227 33.9718C18.2675 32.3061 17.5898 30.726 16.6277 29.3207V33.0596ZM8.97781 32.5928L11.8641 34.7405C11.874 33.1708 12.0789 31.6084 12.4744 30.0893C11.9826 29.3834 11.5287 28.6518 11.1145 27.8977C9.89152 28.6084 9.09639 30.2245 8.97948 32.5895L8.97781 32.5928ZM11.8534 27.5884C12.1563 28.1213 12.4744 28.6307 12.8077 29.1167C13.0158 28.5629 13.3311 28.0557 13.7355 27.6241C13.1221 27.4469 12.4729 27.4332 11.8525 27.5843L11.8534 27.5884ZM15.6733 28.6092C14.738 28.3422 14.0647 29.3472 13.6792 30.2908C14.275 31.0405 14.9429 31.7298 15.6733 32.349V28.6092ZM15.6733 33.6418C14.8212 32.9288 14.0433 32.1315 13.3516 31.2619C13.0077 32.6321 12.8279 34.0384 12.816 35.4511L15.6717 37.5764L15.6733 33.6418ZM15.6733 38.8659L12.8177 36.7406C12.8566 38.416 13.0358 40.0853 13.3533 41.7309C14.1829 41.9535 14.9681 42.3167 15.675 42.8047V38.8659H15.6733ZM15.6733 47.8373V44.0975C15.0644 43.6839 14.3903 43.3755 13.6792 43.1853C13.7427 43.4347 13.8094 43.6807 13.879 43.9234C14.223 45.3277 14.8317 46.6536 15.6725 47.8298L15.6733 47.8373ZM13.7347 45.9392C13.4625 45.2608 13.2253 44.5689 13.0241 43.8661C12.9484 43.6035 12.876 43.3371 12.8069 43.0668C12.4851 43.0556 12.1635 43.0922 11.8525 43.1754C12.403 44.1445 13.0323 45.0666 13.7339 45.9326L13.7347 45.9392ZM11.1145 41.7624C11.5534 41.6224 12.0147 41.5661 12.4744 41.5965C12.1102 39.763 11.906 37.9013 11.8641 36.0324L8.97781 33.8847C9.16921 36.6227 9.89483 39.2967 11.1137 41.7558L11.1145 41.7624Z" fill="#27292B"/>
</svg>

<svg xmlns="http://www.w3.org/2000/svg" width="46" height="69" fill="none" viewBox="0 0 46 69"><path fill="#0d034a" d="M36.052 64.642c.496.005.985-.12 1.417-.362 1.078-.61 1.676-1.898 1.676-3.622V26.143a11.27 11.27 0 0 0-4.928-8.864L12.263 4.082c-1.397-.84-2.742-.975-3.787-.384-1.078.611-1.674 1.897-1.674 3.622v34.513a11.27 11.27 0 0 0 4.93 8.864L33.68 63.893c.708.459 1.528.718 2.371.75M9.895 4.374a3.66 3.66 0 0 1 1.835.598l21.95 13.197a10.28 10.28 0 0 1 4.43 7.977V60.66c0 1.336-.408 2.302-1.15 2.724a2.75 2.75 0 0 1-2.746-.371L12.263 49.814a10.28 10.28 0 0 1-4.429-7.976V7.323c0-1.337.409-2.303 1.15-2.723a1.83 1.83 0 0 1 .912-.229z"/><path fill="#0d034a" d="M42.396 61.304c.496.005.984-.12 1.417-.363 1.078-.61 1.676-1.898 1.676-3.623V22.807a11.27 11.27 0 0 0-4.93-8.865L18.604.746c-1.397-.84-2.742-.975-3.786-.384-1.078.61-1.674 1.897-1.674 3.622v34.514a11.27 11.27 0 0 0 4.928 8.865l21.954 13.196a4.7 4.7 0 0 0 2.369.745M16.238 1.035a3.65 3.65 0 0 1 1.834.598l21.955 13.198a10.28 10.28 0 0 1 4.429 7.976v34.512c0 1.337-.41 2.305-1.151 2.724a2.75 2.75 0 0 1-2.747-.371L18.605 46.475a10.28 10.28 0 0 1-4.429-7.978V3.99c0-1.337.408-2.304 1.15-2.724.279-.155.593-.235.912-.23" opacity=".43"/><path fill="#fff" d="M28.002 21.741a10.82 10.82 0 0 1 4.68 8.42v34.512c0 3.106-2.088 4.352-4.68 2.795L6.048 54.271a10.81 10.81 0 0 1-4.678-8.42V11.34c0-3.106 2.087-4.353 4.678-2.795z"/><path fill="#27292b" d="M30.106 68.999c.555.004 1.1-.136 1.584-.408 1.19-.673 1.847-2.064 1.847-3.916V30.163a11.63 11.63 0 0 0-5.094-9.154L6.486 7.815C4.98 6.91 3.515 6.772 2.358 7.427 1.168 8.1.512 9.49.512 11.344v34.508a11.63 11.63 0 0 0 5.092 9.153l21.958 13.2a5 5 0 0 0 2.544.794m-2.544-46.52a9.91 9.91 0 0 1 4.264 7.688v34.508c0 1.192-.357 2.073-.978 2.428a2.44 2.44 0 0 1-2.405-.366L6.486 53.54a9.91 9.91 0 0 1-4.264-7.688V11.343c0-1.191.357-2.073.979-2.429a2.44 2.44 0 0 1 2.404.366l21.957 13.196z"/><path fill="#27292b" d="M16.15 27.56c4.484 3.337 8.144 11.01 8.144 17.074s-3.66 8.292-8.144 4.952C11.69 46.27 8.007 38.6 8.007 32.512c-.001-6.065 3.659-8.29 8.143-4.953m2.416 3.654q.56 1.407.928 2.876c.322.01.643-.026.954-.11a20.3 20.3 0 0 0-1.882-2.766m2.62 4.177c-.438.14-.9.196-1.36.165.365 1.833.569 3.693.61 5.56l2.887 2.148a21 21 0 0 0-2.137-7.874m2.137 9.166-2.886-2.148a19 19 0 0 1-.61 4.651q.737 1.06 1.36 2.192c1.225-.714 2.016-2.33 2.137-4.695m-2.875 5.004a21 21 0 0 0-.955-1.528 7 7 0 0 1-.217.477c-.18.376-.42.72-.71 1.019a3.67 3.67 0 0 0 1.882.032m-3.82-1.02c.654.186 1.289-.243 1.795-1.244q.104-.209.2-.44a14.6 14.6 0 0 0-1.995-2.059v3.743m0-5.033c.852.713 1.63 1.51 2.321 2.38.344-1.37.524-2.777.536-4.19l-2.856-2.125zm0-5.224 2.855 2.125a30 30 0 0 0-.535-4.986 7.5 7.5 0 0 1-2.322-1.074zm0-5.224c.609.413 1.283.722 1.995.912a13.1 13.1 0 0 0-1.995-4.651zm-7.65-.467 2.886 2.147c.01-1.57.215-3.132.61-4.65a24 24 0 0 1-1.36-2.192c-1.222.71-2.018 2.326-2.135 4.692zm2.875-5.005q.454.8.955 1.529a4.5 4.5 0 0 1 .928-1.493 3.66 3.66 0 0 0-1.884-.04zm3.82 1.021c-.935-.267-1.608.738-1.994 1.682.596.75 1.264 1.439 1.994 2.058zm0 5.033a16.5 16.5 0 0 1-2.321-2.38 17.8 17.8 0 0 0-.536 4.19l2.856 2.124zm0 5.224-2.855-2.125a30 30 0 0 0 .535 4.99c.83.222 1.615.586 2.322 1.074v-3.94zm0 8.971v-3.74a6.6 6.6 0 0 0-1.994-.912q.095.375.2.738c.344 1.405.953 2.73 1.793 3.907zm-1.938-1.898q-.409-1.018-.71-2.073a27 27 0 0 1-.218-.8 3.3 3.3 0 0 0-.955.11c.551.968 1.18 1.89 1.882 2.757zm-2.62-4.177c.438-.14.9-.196 1.36-.166a32.3 32.3 0 0 1-.61-5.564l-2.887-2.147a21 21 0 0 0 2.136 7.87z"/></svg>
